X:3079
T:Herligt en sommernat
T:From Elverh\oj
C:Fr. Kuhlau
O:Denmark
F:http://abc.musicaviva.com/tunes/kuhlau-fr/kuhlau-herligt-en.abc
M:2/4
L:1/8
K:C
"C"c2cc|"C"e>cc2|"C"c2cc|"C"e>cc2|"C"e2ee|"C"g2ec|"G"d4|"C"e4|
"Am"e2ee|"Am"g>ee2|"Am"e2ee|"Am"g>ee2|"C"c2cc|"C"e2dc|"G"d4|"C"c4|]
W:
W:
W:  From Musica Viva - http://www.musicaviva.com
W:  the Internet center for free sheet music downloads.
